web/abstruse/src/assets/images/avatars/avatar_30.svg

<svg width="200px" height="262px" viewBox="0 0 200 262" version="1.1" xmlns="http://www.w3.org/2000/svg" xmlns:xlink="http://www.w3.org/1999/xlink">
    <!-- Generator: Sketch 50.2 (55047) - http://www.bohemiancoding.com/sketch -->
    <desc>Created with Sketch.</desc>
    <defs>
        <path d="M124,144.610951 L124,163 L128,163 C167.764502,163 200,195.235498 200,235 L200,244 L0,244 L0,235 C-4.86974701e-15,195.235498 32.235498,163 72,163 L76,163 L76,144.610951 C58.7626345,136.422372 46.3722246,119.687011 44.3051388,99.8812385 C38.4803105,99.0577866 34,94.0521096 34,88 L34,74 C34,68.0540074 38.3245733,63.1180731 44,62.1659169 L44,56 C44,25.072054 69.072054,5.68137151e-15 100,0 C130.927946,-5.68137151e-15 156,25.072054 156,56 L156,62.1659169 C161.675427,63.1180731 166,68.0540074 166,74 L166,88 C166,94.0521096 161.51969,99.0577866 155.694861,99.8812385 C153.627775,119.687011 141.237365,136.422372 124,144.610951 Z" id="path-1"></path>
        <path d="M181.544255,32.3304167 C210.784209,41.4878872 232,68.7921987 232,101.051724 L232,110 L32,110 L32,101.051724 C32,68.3969699 53.7388273,40.8195914 83.5340368,32.0020332 C83.182234,33.4201865 83,34.8712315 83,36.3476251 C83,52.6289957 105.161905,65.8276544 132.5,65.8276544 C159.838095,65.8276544 182,52.6289957 182,36.3476251 C182,34.9849859 181.844766,33.6439396 181.544255,32.3304167 Z" id="path-3"></path>
        <rect id="path-5" x="0" y="0" width="264" height="280"></rect>
        <path d="M59,102.340287 C57.3238344,102.197638 55.7582039,101.883256 54.8534901,101.273154 C51.6949619,99.1431718 50,95.0507583 50,90.5 C50,83.5964406 54.4771525,78 60,78 C66.8627142,43.8282542 96.9151011,18 133,18 C170.555563,18 201.576875,45.9764505 206.360189,82.2256031 C206.623862,84.2237818 206.82774,91.3536714 206.971823,103.615272 C206.990567,103.721208 207,103.807916 207,103.874706 C207,115.902549 207,133.944314 207,158 C207,175.673112 192.673112,190 175,190 L157,190 L157,180.610951 C174.530782,172.282984 187.048193,155.114792 188.791419,134.867187 C194.569129,134.002364 199,129.018625 199,123 L199,110 C199,108.48395 198.718861,106.513486 198.205873,104.403108 C180.317578,99.018563 162.699828,82.6926393 152.444252,59.6582378 C152.034942,58.738913 151.64142,57.8180234 151.263585,56.8960843 C146.677812,69.1324394 138.047336,78.0120855 125.372156,83.5350224 C130.244513,77.5880409 134.394107,70.6604321 137.820938,62.752196 C129.843979,71.2579416 119.473269,79.4910638 107.341516,86.4953343 C94.9706808,93.6376395 82.4088376,98.5552525 70.8694649,101.174135 C68.4903619,103.366917 67,106.509412 67,110 L67,123 C67,129.018625 71.4308707,134.002364 77.2085808,134.867187 C78.9518066,155.114792 91.4692178,172.282984 109,180.610951 L109,190 L67,190 C62.581722,190 59,186.418278 59,182 L59,102.340287 Z" id="path-7"></path>
    </defs>
    <g id="Changelog" stroke="none" stroke-width="1" fill="none" fill-rule="evenodd">
        <g transform="translate(-592.000000, -3396.000000)" id="Avataaar/Default">
            <g transform="translate(560.000000, 3378.000000)">
                <g id="Body" stroke-width="1" fill-rule="evenodd" transform="translate(32.000000, 36.000000)">
                    <mask id="mask-2" fill="white">
                        <use xlink:href="#path-1"></use>
                    </mask>
                    <use fill="#D0C6AC" xlink:href="#path-1"></use>
                    <g id="Skin/👶🏼-04-Light" mask="url(#mask-2)" fill="#EDB98A">
                        <g transform="translate(-32.000000, 0.000000)" id="Color">
                            <rect x="0" y="0" width="264" height="244"></rect>
                        </g>
                    </g>
                    <path d="M156,94 L156,102 C156,132.927946 130.927946,158 100,158 C69.072054,158 44,132.927946 44,102 L44,94 C44,124.927946 69.072054,150 100,150 C130.927946,150 156,124.927946 156,94 Z" id="Neck-Shadow" fill-opacity="0.100000001" fill="#000000" mask="url(#mask-2)"></path>
                </g>
                <g id="Clothing/Shirt-Scoop-Neck" transform="translate(0.000000, 170.000000)">
                    <mask id="mask-4" fill="white">
                        <use xlink:href="#path-3"></use>
                    </mask>
                    <use id="Clothes" fill="#E6E6E6" fill-rule="evenodd" xlink:href="#path-3"></use>
                    <g id="Color/Palette/Gray-01" mask="url(#mask-4)" fill="#E6E6E6" fill-rule="evenodd">
                        <rect id="🖍Color" x="0" y="0" width="264" height="110"></rect>
                    </g>
                </g>
                <g id="Face" stroke-width="1" fill-rule="evenodd" transform="translate(76.000000, 82.000000)" fill="#000000">
                    <g id="Mouth/Default" transform="translate(2.000000, 52.000000)" fill-opacity="0.699999988">
                        <path d="M40,15 C40,22.7319865 46.2680135,29 54,29 C61.7319865,29 68,22.7319865 68,15" id="Mouth"></path>
                    </g>
                    <g id="Nose/Default" transform="translate(28.000000, 40.000000)" fill-opacity="0.16">
                        <path d="M16,8 C16,12.418278 21.372583,16 28,16 C34.627417,16 40,12.418278 40,8" id="Nose"></path>
                    </g>
                    <g id="Eyes/Default-😀" transform="translate(0.000000, 8.000000)" fill-opacity="0.599999964">
                        <circle id="Eye" cx="30" cy="22" r="6"></circle>
                        <circle id="Eye" cx="82" cy="22" r="6"></circle>
                    </g>
                    <g id="Eyebrow/Outline/Default" fill-opacity="0.599999964">
                        <g id="I-Browse" transform="translate(12.000000, 6.000000)">
                            <path d="M3.63024536,11.1585767 C7.54515501,5.64986673 18.2779197,2.56083721 27.5230268,4.83118046 C28.5957248,5.0946055 29.6788665,4.43856013 29.9422916,3.36586212 C30.2057166,2.2931641 29.5496712,1.21002236 28.4769732,0.94659732 C17.7403633,-1.69001789 5.31209962,1.88699832 0.369754639,8.84142326 C-0.270109626,9.74178291 -0.0589363917,10.9903811 0.84142326,11.6302454 C1.74178291,12.2701096 2.9903811,12.0589364 3.63024536,11.1585767 Z" id="Eyebrow" fill-rule="nonzero"></path>
                            <path d="M61.6302454,11.1585767 C65.545155,5.64986673 76.2779197,2.56083721 85.5230268,4.83118046 C86.5957248,5.0946055 87.6788665,4.43856013 87.9422916,3.36586212 C88.2057166,2.2931641 87.5496712,1.21002236 86.4769732,0.94659732 C75.7403633,-1.69001789 63.3120996,1.88699832 58.3697546,8.84142326 C57.7298904,9.74178291 57.9410636,10.9903811 58.8414233,11.6302454 C59.7417829,12.2701096 60.9903811,12.0589364 61.6302454,11.1585767 Z" id="Eyebrow" fill-rule="nonzero" transform="translate(73.000154, 6.039198) scale(-1, 1) translate(-73.000154, -6.039198) "></path>
                        </g>
                    </g>
                </g>
                <g id="Top" stroke-width="1" fill-rule="evenodd">
                    <mask id="mask-6" fill="white">
                        <use xlink:href="#path-5"></use>
                    </mask>
                    <g id="Mask"></g>
                    <g id="Top/Long-Hair/Long-but-not-too-long" mask="url(#mask-6)">
                        <g transform="translate(-1.000000, 0.000000)">
                            <g id="Behind" stroke-width="1" fill-rule="evenodd">
                                <mask id="mask-8" fill="white">
                                    <use xlink:href="#path-7"></use>
                                </mask>
                                <use id="Combined-Shape" fill="#944F23" xlink:href="#path-7"></use>
                                <g id="Color/Hair/Auburn" mask="url(#mask-8)" fill="#A55728">
                                    <rect id="Color" x="0" y="0" width="266" height="280"></rect>
                                </g>
                            </g>
                            <g id="Top" opacity="0.439990942" stroke-width="1" fill-rule="evenodd" transform="translate(50.000000, 18.000000)" fill-opacity="0.159999996">
                                <path d="M11.8989604,84.7749122 C11.2841443,84.9226474 10.6492988,85 10,85 C9.98422521,85 9.96845895,84.9999543 9.95270131,84.9998631 C9.63387297,85.0328725 9.31629342,85.0638362 8.99999434,85.0927525 L8.99999442,84.9382803 C3.9466744,84.3111215 0,78.9816827 0,72.5 C0,65.5964406 4.4771525,60 10,60 C10.1074956,60 10.214595,60.0021202 10.3212729,60.0063288 C16.8627142,25.8282542 46.9151011,6.62868839e-15 83,0 C123.869071,-7.50752664e-15 157,33.1309285 157,74 L157,88.1510343 C136.296003,86.1944823 114.38223,68.4713761 102.444252,41.6582378 C102.034942,40.738913 101.64142,39.8180234 101.263585,38.8960843 C96.6778122,51.1324394 88.0473359,60.0120855 75.3721558,65.5350224 C80.2445133,59.5880409 84.3941075,52.6604321 87.8209384,44.752196 C79.8439791,53.2579416 69.4732686,61.4910638 57.3415164,68.4953343 C41.6792969,77.5379209 25.7109099,83.0145308 11.8989604,84.7749122 Z" id="Combined-Shape" fill="#FFFFFF"></path>
                            </g>
                            <g id="Facial-Hair/-Blank" transform="translate(49.000000, 72.000000)"></g>
                            <g id="Top/_Resources/Blank" transform="translate(62.000000, 85.000000)"></g>
                        </g>
                    </g>
                </g>
            </g>
        </g>
    </g>
</svg>

<svg width="200" height="262" xmlns="http://www.w3.org/2000/svg" xmlns:xlink="http://www.w3.org/1999/xlink"><defs><path d="M124 144.611V163h4c39.765 0 72 32.235 72 72v9H0v-9c0-39.765 32.235-72 72-72h4v-18.389c-17.237-8.189-29.628-24.924-31.695-44.73C38.48 99.058 34 94.052 34 88V74c0-5.946 4.325-10.882 10-11.834V56c0-30.928 25.072-56 56-56s56 25.072 56 56v6.166c5.675.952 10 5.888 10 11.834v14c0 6.052-4.48 11.058-10.305 11.881-2.067 19.806-14.458 36.541-31.695 44.73z" id="a"/><path d="M181.544 32.33C210.784 41.488 232 68.792 232 101.052V110H32v-8.948c0-32.655 21.739-60.232 51.534-69.05A18.001 18.001 0 0083 36.348c0 16.281 22.162 29.48 49.5 29.48S182 52.629 182 36.348c0-1.363-.155-2.704-.456-4.018z" id="c"/><path id="e" d="M0 0h264v280H0z"/><path d="M59 102.34c-1.676-.142-3.242-.457-4.147-1.067C51.695 99.143 50 95.051 50 90.5 50 83.596 54.477 78 60 78c6.863-34.172 36.915-60 73-60 37.556 0 68.577 27.976 73.36 64.226.264 1.998.468 9.128.612 21.39.019.105.028.192.028.259V158c0 17.673-14.327 32-32 32h-18v-9.389c17.53-8.328 30.048-25.496 31.791-45.744C194.57 134.002 199 129.02 199 123v-13c0-1.516-.281-3.487-.794-5.597-17.888-5.384-35.506-21.71-45.762-44.745-.41-.92-.803-1.84-1.18-2.762-4.586 12.236-13.217 21.116-25.892 26.639 4.873-5.947 9.022-12.875 12.449-20.783-7.977 8.506-18.348 16.74-30.48 23.743-12.37 7.143-24.932 12.06-36.472 14.68A11.968 11.968 0 0067 110v13c0 6.019 4.43 11.002 10.209 11.867 1.743 20.248 14.26 37.416 31.791 45.744V190H67a8 8 0 01-8-8v-79.66z" id="g"/></defs><g fill="none" fill-rule="evenodd"><g transform="translate(0 18)"><mask id="b" fill="#fff"><use xlink:href="#a"/></mask><use fill="#D0C6AC" xlink:href="#a"/><g mask="url(#b)" fill="#EDB98A"><path d="M-32 0h264v244H-32z"/></g><path d="M156 94v8c0 30.928-25.072 56-56 56s-56-25.072-56-56v-8c0 30.928 25.072 56 56 56s56-25.072 56-56z" fill-opacity=".1" fill="#000" mask="url(#b)"/></g><g transform="translate(-32 152)"><mask id="d" fill="#fff"><use xlink:href="#c"/></mask><use fill="#E6E6E6" xlink:href="#c"/><g mask="url(#d)" fill="#E6E6E6"><path d="M0 0h264v110H0z"/></g></g><g fill="#000"><path d="M86 131c0 7.732 6.268 14 14 14s14-6.268 14-14" fill-opacity=".7"/><path d="M88 112c0 4.418 5.373 8 12 8s12-3.582 12-8" fill-opacity=".16"/><g transform="translate(44 72)" fill-opacity=".6"><circle cx="30" cy="22" r="6"/><circle cx="82" cy="22" r="6"/></g><g fill-rule="nonzero" fill-opacity=".6"><path d="M59.63 81.159c3.915-5.51 14.648-8.598 23.893-6.328a2 2 0 00.954-3.884c-10.737-2.637-23.165.94-28.107 7.894a2 2 0 003.26 2.318zM140.37 81.159c-3.915-5.51-14.648-8.598-23.893-6.328a2 2 0 01-.954-3.884c10.737-2.637 23.165.94 28.108 7.894a2 2 0 01-3.26 2.318z"/></g></g><g transform="translate(-32 -18)"><mask id="f" fill="#fff"><use xlink:href="#e"/></mask><g mask="url(#f)"><g transform="translate(-1)"><mask id="h" fill="#fff"><use xlink:href="#g"/></mask><use fill="#944F23" xlink:href="#g"/><g mask="url(#h)" fill="#A55728"><path d="M0 0h266v280H0z"/></g></g><path d="M60.899 102.775a8.113 8.113 0 01-1.946.225 79.78 79.78 0 01-.953.093v-.155c-5.053-.627-9-5.956-9-12.438C49 83.596 53.477 78 59 78c.107 0 .215.002.321.006C65.863 43.828 95.915 18 132 18c40.87 0 74 33.13 74 74v14.151c-20.704-1.957-42.618-19.68-54.556-46.493-.41-.92-.803-1.84-1.18-2.762-4.586 12.236-13.217 21.116-25.892 26.639 4.873-5.947 9.022-12.875 12.449-20.783-7.977 8.506-18.348 16.74-30.48 23.743-15.662 9.043-31.63 14.52-45.442 16.28z" fill="#FFF" opacity=".44" fill-opacity=".16"/></g></g></g></svg>
